X:2
T:Rheinl\"ander GC 5- chords
M:2/4
L:1/16
K:Gmaj%%MIDI gchordon
GB |: "G"d2d2 edBd | "D7"Tc2F2F4 | f2f2 fedc | "G"Bcde d2GB | d2d2 edBG | 
"D"A2f2 f4 | "A7"fe^cA G2c2 |1 "D7"d2d2 d2GB :|2 "D"d2d2 d2ed |: "D7"c2F2 F2ed | "G"B2G2 G2AG | 
"D7"Fee2 edd2 | "G"ed^cd B2ed | "D7"c2F2 F2ed | "G"B2G2 G2AG | "D7"FAfe dcBA |1 "G"G2B2 G2ed :|2 
"G"G2B2 G2EG |: [K:Cmaj] "C"c6Gc | "G7"B6BA | GABc d2f2 | "C"Te2c2 c2EG | c6Gc | "G7"B6Be | 
"D7"d2c2 B2A2 |1 "G"G2B2 G2EG :|2 "G"G2B2 G2G^G |: "F"A2fe d2A^G | "C"=G2ed c2dc | "G7"TB2F2 TB2F2 | 
"C"A2G2 E2G^G | "F"A2fe d2A^G | "C"=G2ed c2Bc | "D7"d2A2 "G7"B2G2 |1 "C"c2e2 c2G^G :|2 "C"c2e2 c2z2 |] 

